assets/images/logo-uni-iade.svg

<svg fill="none" height="37" viewBox="0 0 61 37" width="61" xmlns="http://www.w3.org/2000/svg"><path d="m25.0605 0c9.6016 0 17.6452 6.16434 19.6592 14.3818v-13.907191h15.503v5.245121h-10.3448v9.84077h6.8867v5.1583h-6.8867v10.3007h10.3731v5.1582h-15.5166v-13.7216c-2.0001 8.2174-10.0726 14.3818-19.6602 14.3818h-2.5713v-12.2559h-10.4013l-8.01566 11.5674h-4.08594v-32.8867l5.12988-2.744145v25.041045l13.83012-19.99905c-1.4997.21568-2.8292.47389-3.958.81836l-2.4581.73339-1.4707-4.95703 2.4571-.73242c3.0148-.891415 7.2012-1.42284854 11.5302-1.42285zm2.5743 31.4375c7.0433-1.0785 12.4147-6.4799 12.415-13.0166 0-6.5369-5.3716-11.96811-12.415-13.0459zm-11.959-12.0693h6.8144v-9.8555z" fill="#001b3c"/></svg>

<svg width="61" height="37" viewBox="0 0 61 37" fill="none" xmlns="http://www.w3.org/2000/svg">
<path d="M25.0605 0C34.6621 0 42.7057 6.16434 44.7197 14.3818V0.474609H60.2227V5.71973H49.8779V15.5605H56.7646V20.7188H49.8779V31.0195H60.251V36.1777H44.7344V22.4561C42.7343 30.6735 34.6618 36.8379 25.0742 36.8379H22.5029V24.582H12.1016L4.08594 36.1494H0V3.2627L5.12988 0.518555V25.5596L18.96 5.56055C17.4603 5.77623 16.1308 6.03444 15.002 6.37891L12.5439 7.1123L11.0732 2.15527L13.5303 1.42285C16.5451 0.531435 20.7315 1.46124e-06 25.0605 0ZM27.6348 31.4375C34.6781 30.359 40.0495 24.9576 40.0498 18.4209C40.0498 11.884 34.6782 6.45279 27.6348 5.375V31.4375ZM15.6758 19.3682H22.4902V9.5127L15.6758 19.3682Z" fill="#001B3C"/>
</svg>
